resources/svg/apple-o.svg

<svg xmlns="http://www.w3.org/2000/svg" viewBox="0 0 15 15" fill="none"><path d="M7.82485 3.24126C7.63571 3.24126 7.48219 3.08775 7.48219 2.8986C7.48219 1.57389 8.55677 0.5 9.8808 0.5C10.0706 0.5 10.2235 0.65351 10.2235 0.842657C10.2235 2.16737 9.14957 3.24126 7.82485 3.24126Z" stroke="black"/><path d="M12.828 10.4566C12.9602 10.556 13.0034 10.7362 12.9287 10.8843C11.7226 13.2979 10.7604 14.5 9.88112 14.5C9.47199 14.5 9.06971 14.3677 8.67771 14.11C8.10684 13.7338 7.37013 13.718 6.7835 14.0689C6.30857 14.3533 5.85627 14.5 5.42657 14.5C4.13338 14.5 2 10.5176 2 8.33216C2 5.99934 3.22329 4.22027 5.08392 4.22027C5.95906 4.22027 6.71497 4.34911 7.34957 4.6109C7.6189 4.72192 7.92318 4.71369 8.18565 4.5876C8.70101 4.3402 9.38015 4.22027 10.2238 4.22027C11.2531 4.22027 12.1502 4.73288 12.8965 5.72796C13.0096 5.87941 12.9794 6.09392 12.828 6.20768C11.9953 6.832 11.5944 7.53376 11.5944 8.33216C11.5944 9.13055 11.9953 9.83231 12.828 10.4566Z" stroke="black"/></svg>

<svg xmlns="http://www.w3.org/2000/svg" viewBox="0 0 15 15" fill="none"><path d="M7.825 3.241a.343.343 0 01-.343-.342A2.399 2.399 0 019.881.5c.19 0 .342.154.342.343A2.399 2.399 0 017.825 3.24zm5.003 7.216c.132.099.175.28.1.427-1.205 2.414-2.168 3.616-3.047 3.616-.409 0-.811-.132-1.203-.39a1.782 1.782 0 00-1.895-.041c-.474.284-.927.431-1.356.431C4.133 14.5 2 10.518 2 8.332 2 6 3.223 4.22 5.084 4.22c.875 0 1.631.13 2.266.39.269.112.573.104.836-.022.515-.248 1.194-.368 2.038-.368 1.03 0 1.926.513 2.672 1.508a.343.343 0 01-.068.48c-.833.624-1.234 1.326-1.234 2.124 0 .799.401 1.5 1.234 2.125z" stroke="currentColor"/></svg>
